dist/assets/img/models/NEW.svg

<svg width="47" height="14" viewBox="0 0 47 14" fill="none" xmlns="http://www.w3.org/2000/svg">
<path d="M0.891602 0.931152V13.0849H3.39384V4.94836H3.42789L8.48344 13.0849H11.1559V0.931152H8.65366V9.08472H8.61961L3.54704 0.931152H0.891602Z" fill="#323232"/>
<path d="M16.9129 0.931152V13.0849H26.1389V10.838H19.5854V7.85913H25.475V5.78244H19.5854V3.17806H26.0027V0.931152H16.9129Z" fill="#323232"/>
<path d="M42.9301 13.0849L46.1983 0.931152H43.5769L41.5853 9.306H41.5513L39.4746 0.931152H36.9724L34.8616 9.20387H34.8276L32.9041 0.931152H30.2316L33.4488 13.0849H36.1553L38.1809 4.81218H38.215L40.2746 13.0849H42.9301Z" fill="#323232"/>
</svg>

<svg width="47" height="14" viewBox="0 0 47 14" fill="none" xmlns="http://www.w3.org/2000/svg"><path d="M.892.931v12.154h2.502V4.948h.034l5.055 8.137h2.673V.93H8.654v8.154H8.62L3.547.93H.892zm16.021 0v12.154h9.226v-2.247h-6.554V7.859h5.89V5.782h-5.89V3.178h6.418V.931h-9.09zM42.93 13.085L46.198.93h-2.621l-1.992 8.375h-.034L39.475.931h-2.503l-2.11 8.273h-.034L32.904.93h-2.672l3.217 12.154h2.706l2.026-8.273h.034l2.06 8.273h2.655z" fill="#323232"/></svg>
